X:1
T:Title
%%score 1 2
L:1/8
Q:1/4=110
M:4/4
K:Bb
V:1 treble nm="Grand Piano, Soprano"
V:2 bass nm="Choir Pad, Malibu, 87.87 D"
V:1
 [DF]2 [B,D]2 [Fd]3 [Ec] | [DB]2 [B,D]2 [FA]2 [EG]2 | [DF]3 [EG] [DF]2 [A,C]2 | %3
w: By~Rand~L.~Newton,~1899 * * *|||
 [DF]2 [CE]2 [B,D]4 | [DF]2 [B,D]2 [Fd]3 [Ec] | [DB]2 [B,D]2 [FA]2 [EG]2 | [DF]3 [EG] [DF]2 [DB]2 | %7
w: ||||
 [EB]2 [EA]2 [DB]4 | [Ac]2 [_A=B]2 [=Ac]2 [EF]2 | [Fd]2 [=E_d]2 [F=d]2 [DB]2 | %10
w: |||
 [EG]3 [EA] [DB]2 [Fd]2 | [Ec]2 [D=B]2 [Ec]4 | [DF]2 [B,D]2 [Fd]3 [Ec] | [DB]2 [B,D]2 [FA]2 [EG]2 | %14
w: ||||
 [DF]3 [EG] [DF]2 [DB]2 | [EB]2 [EA]2 [DB]4- | [DB]4 z4 |] %17
w: |||
V:2
 [B,,B,]2 [B,,F,]2 [B,,B,]3 [B,,B,] | [B,,F,]2 [B,,B,]2 [E,B,]2 [E,B,]2 | %2
 [F,B,]3 [F,B,] [F,B,]2 [F,C]2 | [F,B,]2 F,2 [B,,F,]4 | [B,,B,]2 [B,,F,]2 [B,,B,]3 [B,,B,] | %5
 [B,,F,]2 [B,,B,]2 [E,B,]2 [E,B,]2 | [F,B,]3 [F,B,] [F,B,]2 F,2 | [F,C]2 [F,C]2 [B,,B,]4 | %8
 F,2 F,2 F,2 [F,A,]2 | [B,,B,]2 [B,,B,]2 [B,,B,]2 [B,,F,]2 | E,3 [D,F,] [B,,F,]2 [B,,B,]2 | %11
 [F,A,]2 [F,_A,]2 [F,=A,]4 | B,2 [B,,F,]2 [B,,B,]3 [B,,B,] | [B,,F,]2 [B,,B,]2 [E,B,]2 [E,B,]2 | %14
 [F,B,]3 [F,B,] [F,B,]2 F,2 | [F,C]2 [F,C]2 [B,,B,]4- | [B,,B,]4 z4 |] %17

